X:177
M:6/8
L:1/8
K:D
|: BGd BGd | AFd AFd | BGd BGd | AFd AFd | BGE BGE | AFD AFD | E2E "tr"cBc | d3 D3 :|

